;FLAVOR:Marlin
;TIME:1885
;Filament used: 2.00567m
;Layer height: 0.2
;MINX:70.19
;MINY:61.67
;MINZ:0.3
;MAXX:129.662
;MAXY:138.372
;MAXZ:18.9
;Generated with Cura_SteamEngine 4.13.1
M140 S60
M105
M190 S60
M104 S200
M105
M109 S200
M82 ;absolute extrusion mode
G21 ;metric values
 G90 ;absolute positioning
 M82 ;set extruder to absolute mode
 M107 ;start with the fan off
 G28 X0 Y0 ;move X/Y to min endstops
 G28 Z0 ;move Z to min endstops
 G1 Z15.0 F120 ;move the platform down 15mm
 G92 E0 ;zero the extruded length
 G1 F200 E6 ;extrude 6 mm of feed stock
 G92 E0 ;zero the extruded length again
 G1 F120 
 ;Put printing message on LCD screen
 M117 Printing...
G92 E0
G92 E0
G1 F1500 E-6.5
;LAYER_COUNT:94
;LAYER:0
M107
G0 F3600 X99.654 Y66.738 Z0.3
;TYPE:SKIRT
G1 F1500 E0
G1 F3000 X99.927 Y66.362 E0.02318
G1 X100.462 Y65.67 E0.06682
G1 X100.976 Y65.071 E0.1062
G1 X101.548 Y64.526 E0.14562
G1 X101.91 Y64.233 E0.16885
G1 X102.604 Y63.705 E0.21236
G1 X103.256 Y63.26 E0.25174
G1 X103.95 Y62.882 E0.29116
G1 X104.374 Y62.694 E0.3143
G1 X105.188 Y62.361 E0.35818
G1 X105.933 Y62.099 E0.39758
G1 X106.7 Y61.914 E0.43694
G1 X107.134 Y61.845 E0.45887
G1 X108.002 Y61.732 E0.50254
G1 X108.789 Y61.67 E0.54192
G1 X109.579 Y61.688 E0.58135
G1 X110.016 Y61.732 E0.60326
G1 X110.884 Y61.845 E0.64693
G1 X111.661 Y61.987 E0.68634
G1 X112.419 Y62.206 E0.7257
G1 X112.83 Y62.361 E0.74761
G1 X113.644 Y62.694 E0.79149
G1 X114.359 Y63.029 E0.83088
G1 X115.036 Y63.436 E0.87029
G1 X115.414 Y63.705 E0.89344
G1 X116.108 Y64.233 E0.93695
G1 X116.711 Y64.743 E0.97635
G1 X117.26 Y65.31 E1.01572
G1 X117.556 Y65.67 E1.03897
G1 X118.091 Y66.362 E1.08261
G1 X118.542 Y67.011 E1.12204
G1 X118.924 Y67.701 E1.16139
G1 X119.117 Y68.125 E1.18463
G1 X119.451 Y68.924 E1.22784
G1 X119.718 Y69.667 E1.26723
G1 X119.909 Y70.433 E1.30661
G1 X119.986 Y70.904 E1.33042
G1 X120.101 Y71.769 E1.37396
G1 X120.165 Y72.556 E1.41335
G1 X120.15 Y73.346 E1.45277
G1 X120.101 Y73.826 E1.47684
G1 X119.986 Y74.69 E1.52033
G1 X119.926 Y75.015 E1.53682
G1 X120.876 Y75.112 E1.58446
G1 X121.599 Y75.238 E1.62107
G1 X122.369 Y75.413 E1.66047
G1 X123.118 Y75.664 E1.69988
G1 X124.08 Y76.121 E1.75301
G1 X124.728 Y76.485 E1.79009
G1 X125.396 Y76.907 E1.82951
G1 X126.018 Y77.393 E1.86889
G1 X126.695 Y78.056 E1.91617
G1 X127.212 Y78.628 E1.95463
G1 X127.711 Y79.24 E1.99403
G1 X128.146 Y79.899 E2.03342
G1 X128.516 Y80.609 E2.07337
G1 X128.844 Y81.325 E2.11266
G1 X129.136 Y82.059 E2.15207
G1 X129.353 Y82.819 E2.1915
G1 X129.472 Y83.455 E2.22378
G1 X129.588 Y84.255 E2.26411
G1 X129.662 Y85.041 E2.3035
G1 X129.656 Y85.831 E2.34291
G1 X129.588 Y86.495 E2.37621
G1 X129.472 Y87.294 E2.41649
G1 X129.319 Y88.068 E2.45586
G1 X129.089 Y88.824 E2.49528
G1 X128.844 Y89.422 E2.52752
G1 X128.516 Y90.138 E2.56681
G1 X128.152 Y90.838 E2.60617
G1 X127.718 Y91.498 E2.64558
G1 X127.212 Y92.119 E2.68555
G1 X126.695 Y92.691 E2.72401
G1 X126.136 Y93.249 E2.76342
G1 X125.524 Y93.748 E2.80281
G1 X124.728 Y94.262 E2.85009
G1 X124.08 Y94.626 E2.88717
G1 X123.373 Y94.977 E2.92655
G1 X122.634 Y95.255 E2.96594
G1 X121.609 Y95.507 E3.0186
G1 X120.886 Y95.634 E3.05522
G1 X120.103 Y95.731 E3.09458
G1 X119.313 Y95.749 E3.13401
G1 X118.188 Y95.634 E3.19043
G1 X117.465 Y95.507 E3.22705
G1 X116.695 Y95.332 E3.26645
G1 X115.947 Y95.079 E3.30584
G1 X114.994 Y94.626 E3.35848
G1 X114.346 Y94.262 E3.39556
G1 X113.678 Y93.84 E3.43498
G1 X113.056 Y93.354 E3.47436
G1 X112.379 Y92.691 E3.52164
G1 X111.862 Y92.119 E3.56011
G1 X111.363 Y91.507 E3.5995
G1 X110.928 Y90.848 E3.6389
G1 X110.558 Y90.138 E3.67884
G1 X110.23 Y89.422 E3.71813
G1 X109.938 Y88.688 E3.75754
G1 X109.721 Y87.928 E3.79697
G1 X109.602 Y87.294 E3.82916
G1 X109.486 Y86.495 E3.86944
G1 X109.412 Y85.708 E3.90887
G1 X109.418 Y84.919 E3.94824
G1 X109.486 Y84.255 E3.98154
G1 X109.537 Y83.9 E3.99943
G1 X109.238 Y83.924 E4.0144
G1 X108.448 Y83.907 E4.05382
G1 X107.993 Y83.861 E4.07663
G1 X107.125 Y83.747 E4.12031
G1 X106.349 Y83.604 E4.15968
G1 X105.59 Y83.384 E4.1991
G1 X105.188 Y83.232 E4.22054
G1 X104.374 Y82.899 E4.26442
G1 X103.659 Y82.564 E4.30381
G1 X102.982 Y82.157 E4.34322
G1 X102.604 Y81.888 E4.36637
G1 X101.91 Y81.36 E4.40987
G1 X101.307 Y80.85 E4.44928
G1 X100.758 Y80.283 E4.48865
G1 X100.462 Y79.923 E4.5119
G1 X99.927 Y79.231 E4.55554
G1 X99.476 Y78.582 E4.59497
G1 X99.094 Y77.892 E4.63432
G1 X98.901 Y77.468 E4.65756
G1 X98.567 Y76.669 E4.70077
G1 X98.3 Y75.926 E4.74015
G1 X98.109 Y75.16 E4.77954
G1 X98.032 Y74.69 E4.8033
G1 X97.917 Y73.826 E4.84679
G1 X97.853 Y73.039 E4.88618
G1 X97.868 Y72.25 E4.92555
G1 X97.917 Y71.769 E4.94967
G1 X98.032 Y70.904 E4.99321
G1 X98.176 Y70.128 E5.03258
G1 X98.397 Y69.369 E5.07202
G1 X98.567 Y68.924 E5.09579
G1 X98.901 Y68.125 E5.13899
G1 X99.243 Y67.412 E5.17844
G1 X99.654 Y66.738 E5.21783
G0 F3600 X100.007 Y66.931
G1 F3000 X100.244 Y66.607 E5.23786
G1 X100.779 Y65.915 E5.2815
G1 X101.28 Y65.332 E5.31985
G1 X101.839 Y64.804 E5.35821
G1 X102.152 Y64.552 E5.37826
G1 X102.846 Y64.024 E5.42176
G1 X103.482 Y63.59 E5.46017
G1 X104.159 Y63.225 E5.49855
G1 X104.525 Y63.064 E5.5185
G1 X105.339 Y62.731 E5.56237
G1 X106.065 Y62.477 E5.60075
G1 X107.186 Y62.242 E5.65789
G1 X108.054 Y62.129 E5.70156
G1 X108.821 Y62.069 E5.73994
G1 X109.964 Y62.129 E5.79704
G1 X110.832 Y62.242 E5.84071
G1 X111.589 Y62.381 E5.87911
G1 X112.679 Y62.731 E5.93623
G1 X113.493 Y63.064 E5.9801
G1 X114.189 Y63.392 E6.01849
G1 X114.847 Y63.79 E6.05686
G1 X115.172 Y64.024 E6.07684
G1 X115.866 Y64.552 E6.12034
G1 X116.453 Y65.049 E6.15871
G1 X116.985 Y65.604 E6.19707
G1 X117.239 Y65.915 E6.2171
G1 X117.774 Y66.607 E6.26074
G1 X118.213 Y67.239 E6.29913
G1 X118.583 Y67.913 E6.33749
G1 X118.747 Y68.279 E6.3575
G1 X119.081 Y69.078 E6.40071
G1 X119.341 Y69.802 E6.43909
G1 X119.524 Y70.549 E6.47746
G1 X119.589 Y70.957 E6.49807
G1 X119.704 Y71.822 E6.5416
G1 X119.766 Y72.588 E6.57994
G1 X119.748 Y73.357 E6.61832
G1 X119.704 Y73.773 E6.63919
G1 X119.589 Y74.637 E6.68267
G1 X119.444 Y75.407 E6.72177
G1 X119.796 Y75.401 E6.73933
G1 X120.807 Y75.506 E6.79004
G1 X121.53 Y75.632 E6.82665
G1 X122.28 Y75.803 E6.86503
G1 X123.008 Y76.051 E6.9034
G1 X123.884 Y76.47 E6.95185
G1 X124.532 Y76.834 E6.98893
G1 X125.182 Y77.245 E7.02729
G1 X125.786 Y77.722 E7.06569
G1 X126.398 Y78.324 E7.10852
G1 X126.915 Y78.896 E7.14699
G1 X127.4 Y79.493 E7.18536
G1 X127.821 Y80.136 E7.22371
G1 X128.153 Y80.776 E7.25968
G1 X128.481 Y81.492 E7.29897
G1 X128.764 Y82.207 E7.33733
G1 X128.972 Y82.948 E7.37573
G1 X129.076 Y83.512 E7.40434
G1 X129.192 Y84.312 E7.44467
G1 X129.263 Y85.078 E7.48305
G1 X129.254 Y85.847 E7.52142
G1 X129.192 Y86.437 E7.55102
G1 X129.076 Y87.236 E7.5913
G1 X128.926 Y87.991 E7.6297
G1 X128.699 Y88.725 E7.66803
G1 X128.481 Y89.255 E7.69662
G1 X128.153 Y89.971 E7.73591
G1 X127.796 Y90.653 E7.77432
G1 X127.371 Y91.294 E7.81269
G1 X126.915 Y91.851 E7.8486
G1 X126.398 Y92.423 E7.88707
G1 X125.853 Y92.966 E7.92545
G1 X125.255 Y93.45 E7.96383
G1 X124.532 Y93.913 E8.00666
G1 X123.884 Y94.277 E8.04374
G1 X123.195 Y94.618 E8.0821
G1 X122.474 Y94.886 E8.12047
G1 X121.54 Y95.113 E8.16843
G1 X120.817 Y95.24 E8.20505
G1 X120.054 Y95.334 E8.2434
G1 X119.285 Y95.348 E8.28178
G1 X118.257 Y95.24 E8.33335
G1 X117.534 Y95.113 E8.36997
G1 X116.784 Y94.941 E8.40836
G1 X116.056 Y94.692 E8.44674
G1 X115.19 Y94.277 E8.49465
G1 X114.542 Y93.913 E8.53173
G1 X113.892 Y93.502 E8.5701
G1 X113.288 Y93.025 E8.6085
G1 X112.676 Y92.423 E8.65133
G1 X112.159 Y91.851 E8.68979
G1 X111.674 Y91.254 E8.72817
G1 X111.253 Y90.611 E8.76651
G1 X110.921 Y89.971 E8.80248
G1 X110.593 Y89.255 E8.84177
G1 X110.31 Y88.54 E8.88014
G1 X110.102 Y87.799 E8.91853
G1 X109.998 Y87.236 E8.9471
G1 X109.882 Y86.437 E8.98738
G1 X109.811 Y85.671 E9.02576
G1 X109.82 Y84.902 E9.06413
G1 X109.882 Y84.312 E9.09372
G1 X109.998 Y83.512 E9.13405
G1 X110.008 Y83.459 E9.13674
G1 X109.973 Y83.464 E9.13851
G1 X109.206 Y83.524 E9.17689
G1 X108.437 Y83.505 E9.21527
G1 X108.045 Y83.464 E9.23493
G1 X107.177 Y83.35 E9.27861
G1 X106.421 Y83.21 E9.31697
G1 X105.339 Y82.862 E9.37367
G1 X104.525 Y82.529 E9.41755
G1 X103.829 Y82.201 E9.45593
G1 X103.171 Y81.803 E9.4943
G1 X102.846 Y81.569 E9.51428
G1 X102.152 Y81.041 E9.55778
G1 X101.565 Y80.544 E9.59616
G1 X101.033 Y79.989 E9.63451
G1 X100.779 Y79.678 E9.65455
G1 X100.244 Y78.986 E9.69818
G1 X99.805 Y78.354 E9.73658
G1 X99.435 Y77.68 E9.77494
G1 X99.271 Y77.314 E9.79494
G1 X98.937 Y76.515 E9.83815
G1 X98.677 Y75.791 E9.87653
G1 X98.494 Y75.044 E9.9149
G1 X98.429 Y74.637 E9.93546
G1 X98.314 Y73.773 E9.97895
G1 X98.252 Y73.007 E10.01729
G1 X98.27 Y72.238 E10.05566
G1 X98.314 Y71.822 E10.07653
G1 X98.429 Y70.957 E10.12007
G1 X98.569 Y70.201 E10.15843
G1 X98.788 Y69.463 E10.19683
G1 X98.937 Y69.078 E10.21743
G1 X99.271 Y68.279 E10.26063
G1 X99.604 Y67.586 E10.29899
G1 X100.007 Y66.931 E10.33736
G0 F3600 X100.56 Y66.852
G1 F3000 X101.095 Y66.16 E10.381
G1 X101.584 Y65.593 E10.41835
G1 X102.395 Y64.87 E10.47256
G1 X103.089 Y64.342 E10.51606
G1 X103.707 Y63.922 E10.55334
G1 X104.677 Y63.434 E10.60751
G1 X105.491 Y63.101 E10.65139
G1 X106.197 Y62.855 E10.68869
G1 X107.237 Y62.639 E10.74168
G1 X108.105 Y62.526 E10.78535
G1 X108.851 Y62.469 E10.82268
G1 X109.913 Y62.526 E10.87574
G1 X110.781 Y62.639 E10.91941
G1 X111.516 Y62.775 E10.9567
G1 X112.527 Y63.101 E11.0097
G1 X113.341 Y63.434 E11.05358
G1 X114.018 Y63.754 E11.09093
G1 X114.929 Y64.342 E11.14503
G1 X115.623 Y64.87 E11.18854
G1 X116.194 Y65.354 E11.22588
G1 X116.923 Y66.16 E11.2801
G1 X117.458 Y66.852 E11.32374
G1 X117.883 Y67.467 E11.36103
G1 X118.378 Y68.433 E11.41519
G1 X118.712 Y69.232 E11.45839
G1 X118.964 Y69.937 E11.49574
G1 X119.193 Y71.009 E11.55043
G1 X119.308 Y71.874 E11.59397
G1 X119.367 Y72.62 E11.6313
G1 X119.308 Y73.721 E11.68631
G1 X119.193 Y74.585 E11.72979
G1 X119.055 Y75.32 E11.7671
G1 X118.886 Y75.834 E11.7941
G1 X119.075 Y75.811 E11.8036
G1 X119.823 Y75.802 E11.84092
G1 X120.739 Y75.9 E11.88688
G1 X121.462 Y76.026 E11.92349
G1 X122.191 Y76.194 E11.96082
G1 X122.898 Y76.438 E11.99813
G1 X123.688 Y76.819 E12.04189
G1 X124.336 Y77.183 E12.07897
G1 X124.968 Y77.584 E12.11631
G1 X125.553 Y78.049 E12.15359
G1 X126.101 Y78.592 E12.19208
G1 X126.618 Y79.164 E12.23055
G1 X127.089 Y79.745 E12.26786
G1 X127.496 Y80.373 E12.3052
G1 X127.789 Y80.943 E12.33717
G1 X128.117 Y81.659 E12.37646
G1 X128.392 Y82.354 E12.41375
G1 X128.591 Y83.076 E12.45112
G1 X128.681 Y83.57 E12.47617
G1 X128.797 Y84.37 E12.5165
G1 X128.864 Y85.115 E12.55381
G1 X128.852 Y85.862 E12.59109
G1 X128.796 Y86.38 E12.61708
G1 X128.68 Y87.179 E12.65736
G1 X128.533 Y87.912 E12.69466
G1 X128.309 Y88.626 E12.73199
G1 X128.117 Y89.088 E12.75695
G1 X127.789 Y89.804 E12.79624
G1 X127.442 Y90.467 E12.83358
G1 X127.025 Y91.088 E12.8709
G1 X126.618 Y91.583 E12.90287
G1 X126.101 Y92.155 E12.94133
G1 X125.571 Y92.682 E12.97862
G1 X124.987 Y93.15 E13.01596
G1 X124.336 Y93.564 E13.05445
G1 X123.688 Y93.928 E13.09153
G1 X123.017 Y94.259 E13.12886
G1 X122.315 Y94.517 E13.16617
G1 X121.471 Y94.719 E13.20947
G1 X120.748 Y94.846 E13.24609
G1 X120.005 Y94.936 E13.28343
G1 X119.257 Y94.946 E13.32075
G1 X118.326 Y94.846 E13.36747
G1 X117.603 Y94.719 E13.40409
G1 X116.874 Y94.551 E13.44141
G1 X116.167 Y94.305 E13.47876
G1 X115.386 Y93.928 E13.52203
G1 X114.738 Y93.564 E13.55911
G1 X114.106 Y93.163 E13.59645
G1 X113.521 Y92.698 E13.63373
G1 X112.973 Y92.155 E13.67222
G1 X112.456 Y91.583 E13.71069
G1 X111.985 Y91.002 E13.748
G1 X111.578 Y90.374 E13.78534
G1 X111.285 Y89.804 E13.81731
G1 X110.957 Y89.088 E13.8566
G1 X110.682 Y88.393 E13.89389
G1 X110.483 Y87.671 E13.93125
G1 X110.394 Y87.179 E13.9562
G1 X110.278 Y86.38 E13.99648
G1 X110.21 Y85.635 E14.0338
G1 X110.222 Y84.887 E14.07112
G1 X110.277 Y84.37 E14.09706
G1 X110.393 Y83.57 E14.13739
G1 X110.509 Y82.99 E14.1669
G1 X109.921 Y83.067 E14.19649
G1 X109.175 Y83.125 E14.23382
G1 X108.097 Y83.067 E14.28768
G1 X107.229 Y82.953 E14.33135
G1 X106.494 Y82.816 E14.36865
G1 X105.491 Y82.492 E14.42124
G1 X104.677 Y82.159 E14.46512
G1 X104 Y81.839 E14.50248
G1 X103.089 Y81.251 E14.55657
G1 X102.395 Y80.723 E14.60008
G1 X101.824 Y80.239 E14.63742
G1 X101.095 Y79.433 E14.69164
G1 X100.56 Y78.741 E14.73528
G1 X100.135 Y78.126 E14.77258
G1 X99.64 Y77.16 E14.82673
G1 X99.306 Y76.361 E14.86993
G1 X99.054 Y75.656 E14.90729
G1 X98.825 Y74.585 E14.96193
G1 X98.71 Y73.721 E15.00541
G1 X98.651 Y72.975 E15.04275
G1 X98.71 Y71.874 E15.09775
G1 X98.825 Y71.009 E15.14129
G1 X98.963 Y70.274 E15.1786
G1 X99.306 Y69.232 E15.23333
G1 X99.64 Y68.433 E15.27653
G1 X99.965 Y67.759 E15.31386
G1 X100.56 Y66.852 E15.36798
G0 F3600 X100.877 Y67.096
G1 F3000 X101.412 Y66.404 E15.41162
G1 X101.887 Y65.855 E15.44784
G1 X102.637 Y65.188 E15.49791
G1 X103.331 Y64.66 E15.54142
G1 X103.932 Y64.253 E15.57763
G1 X104.828 Y63.804 E15.62763
G1 X105.642 Y63.471 E15.67151
G1 X106.328 Y63.234 E15.70772
G1 X107.289 Y63.035 E15.75668
G1 X108.157 Y62.922 E15.80035
G1 X108.881 Y62.868 E15.83657
G1 X109.861 Y62.922 E15.88554
G1 X110.729 Y63.035 E15.92921
G1 X111.443 Y63.168 E15.96544
G1 X112.376 Y63.471 E16.01438
G1 X113.19 Y63.804 E16.05826
G1 X113.846 Y64.116 E16.0945
G1 X114.687 Y64.66 E16.14447
G1 X115.381 Y65.188 E16.18798
G1 X115.934 Y65.659 E16.22422
G1 X116.606 Y66.404 E16.27427
G1 X117.141 Y67.096 E16.31791
G1 X117.553 Y67.694 E16.35414
G1 X118.009 Y68.588 E16.40421
G1 X118.343 Y69.387 E16.44741
G1 X118.586 Y70.071 E16.48363
G1 X118.796 Y71.062 E16.53417
G1 X118.911 Y71.927 E16.5777
G1 X118.967 Y72.651 E16.61393
G1 X118.911 Y73.668 E16.66475
G1 X118.796 Y74.532 E16.70823
G1 X118.661 Y75.245 E16.74443
G1 X118.343 Y76.206 E16.79494
G1 X118.298 Y76.313 E16.80073
G1 X118.401 Y76.295 E16.80594
G1 X119.122 Y76.209 E16.84217
G1 X119.848 Y76.203 E16.87839
G1 X120.67 Y76.294 E16.91965
G1 X121.393 Y76.42 E16.95627
G1 X122.101 Y76.584 E16.99252
G1 X122.786 Y76.825 E17.02875
G1 X123.492 Y77.168 E17.06791
G1 X124.14 Y77.532 E17.10499
G1 X124.753 Y77.922 E17.14124
G1 X125.319 Y78.377 E17.17747
G1 X125.804 Y78.86 E17.21162
G1 X126.321 Y79.432 E17.25008
G1 X126.778 Y79.997 E17.28634
G1 X127.17 Y80.609 E17.3226
G1 X127.425 Y81.109 E17.3506
G1 X127.753 Y81.825 E17.38989
G1 X128.019 Y82.501 E17.42613
G1 X128.209 Y83.202 E17.46237
G1 X128.285 Y83.627 E17.48391
G1 X128.401 Y84.427 E17.52424
G1 X128.465 Y85.15 E17.56045
G1 X128.45 Y85.877 E17.59673
G1 X128.401 Y86.322 E17.61906
G1 X128.285 Y87.121 E17.65934
G1 X128.141 Y87.833 E17.69558
G1 X127.92 Y88.525 E17.73183
G1 X127.753 Y88.922 E17.75331
G1 X127.425 Y89.638 E17.7926
G1 X127.087 Y90.28 E17.8288
G1 X126.68 Y90.882 E17.86506
G1 X126.321 Y91.315 E17.89312
G1 X125.804 Y91.887 E17.93158
G1 X125.288 Y92.398 E17.96781
G1 X124.719 Y92.849 E18.00404
G1 X124.14 Y93.215 E18.03821
G1 X123.492 Y93.579 E18.07529
G1 X122.84 Y93.9 E18.11155
G1 X122.157 Y94.146 E18.14777
G1 X121.402 Y94.325 E18.18648
G1 X120.679 Y94.452 E18.2231
G1 X119.958 Y94.539 E18.25933
G1 X119.231 Y94.545 E18.2956
G1 X118.395 Y94.452 E18.33757
G1 X117.672 Y94.325 E18.37419
G1 X116.965 Y94.161 E18.4104
G1 X116.28 Y93.919 E18.44665
G1 X115.582 Y93.579 E18.48538
G1 X114.934 Y93.215 E18.52246
G1 X114.321 Y92.825 E18.55871
G1 X113.755 Y92.37 E18.59494
G1 X113.27 Y91.887 E18.62909
G1 X112.753 Y91.315 E18.66755
G1 X112.296 Y90.75 E18.70381
G1 X111.904 Y90.138 E18.74007
G1 X111.649 Y89.638 E18.76807
G1 X111.321 Y88.922 E18.80736
G1 X111.055 Y88.246 E18.8436
G1 X110.865 Y87.545 E18.87984
G1 X110.789 Y87.121 E18.90133
G1 X110.673 Y86.322 E18.94161
G1 X110.609 Y85.599 E18.97782
G1 X110.624 Y84.873 E19.01405
G1 X110.673 Y84.427 E19.03643
G1 X110.789 Y83.627 E19.07676
G1 X110.933 Y82.915 E19.113
G1 X111.069 Y82.488 E19.13536
G1 X110.736 Y82.557 E19.15233
G1 X109.868 Y82.671 E19.19601
G1 X109.144 Y82.726 E19.23223
G1 X108.15 Y82.671 E19.2819
G1 X107.282 Y82.557 E19.32557
G1 X106.568 Y82.423 E19.36182
G1 X105.642 Y82.122 E19.41039
G1 X104.828 Y81.789 E19.45427
G1 X104.172 Y81.477 E19.49051
G1 X103.331 Y80.933 E19.54048
G1 X102.637 Y80.405 E19.58399
G1 X102.084 Y79.934 E19.62023
G1 X101.412 Y79.189 E19.67028
G1 X100.877 Y78.497 E19.71392
G1 X100.465 Y77.899 E19.75015
G1 X100.009 Y77.005 E19.80022
G1 X99.675 Y76.206 E19.84343
